!!!COM: Stadler, Maximilian
!!!CDT: 1748///-1833///
!!!COA: Haydn, Joseph
!!!OTL@@IT: Gioco filarmonico
!!!OTL@EN: Philharmonic Joke
!!!OTA@@IT: o sia maniera facile per comporre un infinito numero de minuetti e trio anche senza sapere il contrapunto
!!!OTA@EN: or the Art of Composing an Infinite Number of Minutes Without the Least Knowledge of Counterpoint
!!!PDT: 1781///
!!!PPR: Artaria
!!!SML: Gesellschaft der Musikfreundes, Vienna
!!!PPR2: Luigi Marescalchi
!!!PPP2: Napoli
!!!PDT2: 1790///
**kern	**kern	**kern
*Icello	*Ivioln	*Ivioln
*>[A,A,B,B,A]	*>[A,A,B,B,A]	*>[A,A,B,B,A]
*>norep[A,B]	*>norep[A,B]	*>norep[A,B]
*>A	*>A	*>A
*k[]	*k[]	*k[]
*M3/4	*M3/4	*M3/4
*MM120	*MM120	*MM120
!!section:  I
!!measure:  A
!!diceroll: 9
=119	=119	=119
4C	2e	2cc
4E	.	.
4G	16d	16b
.	16e	16cc
.	16f	16dd
.	16d	16b
!!section:  I
!!measure:  B
!!diceroll: 10
=142	=142	=142
8BB	4r	8.gg
8G	.	.
.	.	32ff
.	.	32gg
8D	8.ff	8.aa
8G	.	.
.	16b	16ff
8C	4cc	4ee
8G	.	.
!!section:  I
!!measure:  C
!!diceroll: 7
=27	=27	=27
4F	2.c	8a
.	.	8aa
4A	.	8ff
.	.	8ee
4F	.	8dd
.	.	8cc
!!section:  I
!!measure:  D
!!diceroll: 7
=167	=167	=167
4E	4c	8gg
.	.	8g
4D	4B	8ff
.	.	8f
4C	4c	4e
!!section:  I
!!measure:  E
!!diceroll: 3
=146	=146	=146
2.C	4r	8r
.	.	8f
.	4e	8g#
.	.	8a
.	4a	8cc
.	.	8ee
!!section:  I
!!measure:  F
!!diceroll: 10
=129	=129	=129
4B	4g	8gg
.	.	8dd
4A	4f#	16ee
.	.	16dd
.	.	8cc
4G	4g	16dd
.	.	16cc
.	.	8b
!!section:  I
!!measure:  G
!!diceroll: 11
=147	=147	=147
4r	4r	12g
.	.	12b
.	.	12
4BB	4G	8.ff
.	.	16dd
4C	4G	8.ee
.	.	16cc
!!section:  I
!!measure:  H
!!diceroll: 5
=100	=100	=100
8G	2.g	2.g
8D	.	.
8BB	.	.
8D	.	.
4GG	.	.
*>B	*>B	*>B
!!section:  II
!!measure:  A
!!diceroll: 12
=35	=35	=35
4G	4B-	8.gg
.	.	16bb-
4r	4G	8.ee
.	.	16gg
4A	4e	8.cc#
.	.	16ee
!!section:  II
!!measure:  B
!!diceroll: 11
=4	=4	=4
4F	4d	8.dd
.	.	16a
4E	4c#	8.g
.	.	16a
4D	4d	4f
!!section:  II
!!measure:  C
!!diceroll: 8
=57	=57	=57
4B	4d	4f
4r	4r	16ff
.	.	16ee
.	.	16dd
.	.	16cc
4G	4d	4b
!!section:  II
!!measure:  D
!!diceroll: 5
=34	=34	=34
4E	2.g	8gg
.	.	8cc
4F	.	16b
.	.	16cc
.	.	16dd
.	.	16b
4E	.	4cc
!!section:  II
!!measure:  E
!!diceroll: 6
=76	=76	=76
8F	8r	8r
8r	8a	8aa
8D	8r	8r
8r	8f	8ff
8BB	8r	8r
8r	8d	8dd
!!section:  II
!!measure:  F
!!diceroll: 10
=38	=38	=38
4E	4cc	8gg
.	.	8ee
4D	4b	8ff
.	.	8dd
4C	4cc	8ee
.	.	8cc
!!section:  II
!!measure:  G
!!diceroll: 7
=23	=23	=23
4F	4c	16a
.	.	16aa
.	.	16gg
.	.	16ff
4G	4c	4ee
4G	4B	4dd
!!section:  II
!!measure:  H
!!diceroll: 5
=170	=170	=170
4C	2.cc	2.cc
4G	.	.
4c	.	.
*-	*-	*-
!!!END: 2004/11/01/
